X: 15345
T: Gladstone, The
R: reel
M: 4/4
K: Gmajor
BGcA defg|G2 BG AFDc|BGcA defg|dBcA G3c|
BGcA defg|G2 BG AFDc|BGcA defg|dBcA G2Bd|
geag fdgf|ecfe dBed|cAdc BGcB|AGFA GABd|
gG G2 BGBd|g2fg edBd|cdec Bdge|dBAB G3A||

